src/svg/eyedropper.svg

<svg height="1000" width="1000" xmlns="http://www.w3.org/2000/svg"><path d="M947.484 52.516q52.452 52.452 52.452 126.387t-52.452 125.829l-125.55 124.434 58.032 58.032q5.58 5.58 5.58 12.834t-5.58 12.834l-117.18 117.18q-5.58 5.58 -12.834 5.58t-12.834 -5.58l-58.59 -58.59 -336.474 336.474q-20.646 20.646 -50.22 20.646h-113.274l-142.848 71.424 -35.712 -35.712 71.424 -142.848v-113.274q0 -29.574 20.646 -50.22l336.474 -336.474 -58.59 -58.59q-5.58 -5.58 -5.58 -12.834t5.58 -12.834l117.18 -117.18q5.58 -5.58 12.834 -5.58t12.834 5.58l58.032 58.032 124.434 -125.55q51.894 -52.452 125.829 -52.452t126.387 52.452zm-661.788 768.924l321.408 -321.408 -107.136 -107.136 -321.408 321.408v107.136h107.136z"/></svg>

<svg height="1000" width="1000" xmlns="http://www.w3.org/2000/svg"><path d="M947.5 52.5q52.5 52.4 52.5 126.4t-52.5 125.8L822 429.1l58 58.1q5.6 5.5 5.6 12.8t-5.6 12.8L762.8 630q-5.5 5.6 -12.8 5.6T737.2 630l-58.6 -58.6L342.1 907.9q-20.7 20.7 -50.2 20.7H178.6L35.7 1000 0 964.3 71.4 821.4V708.1q0 -29.5 20.7 -50.2L428.6 321.4 370 262.8q-5.6 -5.5 -5.6 -12.8t5.6 -12.8L487.2 120q5.5 -5.6 12.8 -5.6t12.8 5.6l58.1 58L695.3 52.5Q747.2 0 821.1 0t126.4 52.5zM285.7 821.4L607.1 500 500 392.9 178.6 714.3v107.1h107.1z"/></svg>
